X: 42
T:Kendal Reel,The
M:4/4
L:1/8
Q:200
S:Wm Irwin MS
R:Reel
Z:C.G.P
K:F
c||:cBAG F2F2|F2Ac fcAF|BAG^F G2G2|GABc defd:|!
|A2cef2fc|g2ge afcA|A2ce fcAF|B2dc BAGF|!A2cef2fc|g2ge afcA|cAcf
dBdf|eg cef2|! |fg|afc'f affa|ecgef2fg|afc'f affa|ecgef2fg|!afc'f
affa|ecbg ecce|fcgc a cbg|fefaf2f2|]
